dist/icons/svgs/ellipsis-v-solid.svg

<svg xmlns="http://www.w3.org/2000/svg" width="24" height="24" fill="currentcolor" class="icon-ellipsis-v-solid" viewBox="0 0 24 24">
  <path d="M12.5 16.0625C13.2812 16.0625 13.9844 16.4922 14.375 17.1562C14.7656 17.8594 14.7656 18.6797 14.375 19.3438C13.9844 20.0469 13.2812 20.4375 12.5 20.4375C11.6797 20.4375 10.9766 20.0469 10.5859 19.3438C10.1953 18.6797 10.1953 17.8594 10.5859 17.1562C10.9766 16.4922 11.6797 16.0625 12.5 16.0625ZM12.5 9.8125C13.2812 9.8125 13.9844 10.2422 14.375 10.9062C14.7656 11.6094 14.7656 12.4297 14.375 13.0938C13.9844 13.7969 13.2812 14.1875 12.5 14.1875C11.6797 14.1875 10.9766 13.7969 10.5859 13.0938C10.1953 12.4297 10.1953 11.6094 10.5859 10.9062C10.9766 10.2422 11.6797 9.8125 12.5 9.8125ZM14.6875 5.75C14.6875 6.57031 14.2578 7.27344 13.5938 7.66406C12.8906 8.05469 12.0703 8.05469 11.4062 7.66406C10.7031 7.27344 10.3125 6.57031 10.3125 5.75C10.3125 4.96875 10.7031 4.26562 11.4062 3.875C12.0703 3.48438 12.8906 3.48438 13.5938 3.875C14.2578 4.26562 14.6875 4.96875 14.6875 5.75Z"/>
</svg>

<svg xmlns="http://www.w3.org/2000/svg" width="24" height="24" fill="currentColor" class="icon-ellipsis-v-solid" viewBox="0 0 24 24">
  <path d="M12.5 16.063c.781 0 1.484.43 1.875 1.093.39.703.39 1.524 0 2.188a2.1 2.1 0 0 1-1.875 1.093c-.82 0-1.523-.39-1.914-1.093-.39-.664-.39-1.485 0-2.188a2.2 2.2 0 0 1 1.914-1.093m0-6.25c.781 0 1.484.43 1.875 1.093.39.703.39 1.524 0 2.188a2.1 2.1 0 0 1-1.875 1.094c-.82 0-1.523-.391-1.914-1.094-.39-.664-.39-1.485 0-2.188A2.2 2.2 0 0 1 12.5 9.812m2.188-4.063a2.2 2.2 0 0 1-1.094 1.914c-.703.39-1.524.39-2.188 0-.703-.39-1.094-1.094-1.094-1.914 0-.781.391-1.484 1.094-1.875.664-.39 1.485-.39 2.188 0a2.18 2.18 0 0 1 1.094 1.875"/>
</svg>
